package/icons/Outline/svg/google-outline.svg

<svg width="24" height="24" xmlns="http://www.w3.org/2000/svg" xmlns:xlink="http://www.w3.org/1999/xlink"><defs><path d="M12.003 4c-2.182 0-4.22.861-5.74 2.426a7.936 7.936 0 0 0-2.26 5.809c.118 4.104 3.55 7.583 7.65 7.757 4.382.173 8.119-3.212 8.342-7.573.007-.128.006-.693.004-1.219h-7.002v1.582h5.309L17.9 14.08c-.721 2.314-2.55 3.902-4.89 4.248-1.746.253-3.565-.246-4.988-1.383-1.397-1.113-2.273-2.731-2.405-4.44a6.347 6.347 0 0 1 1.685-4.852c1.666-1.8 4.359-2.493 6.667-1.744l.773-1.429a7.962 7.962 0 0 0-2.74-.48m-.007 17.999c-.141 0-.284-.003-.427-.009-5.128-.217-9.418-4.567-9.565-9.698a9.93 9.93 0 0 1 2.824-7.26A9.927 9.927 0 0 1 12.003 2c1.434 0 2.82.298 4.119.885.36.163.642.473.769.851.129.383.093.807-.1 1.162L15.5 7.282a1.447 1.447 0 0 1-1.835.643c-1.653-.673-3.673-.233-4.895 1.087a4.37 4.37 0 0 0-1.158 3.339c.09 1.158.694 2.262 1.658 3.031.994.793 2.256 1.146 3.448.968 1.1-.163 2.012-.715 2.632-1.568h-2.903c-.8 0-1.45-.65-1.45-1.45V10.65c0-.799.65-1.45 1.45-1.45h8.1c.793 0 1.444.645 1.45 1.438a88.28 88.28 0 0 1-.004 1.882c-.273 5.312-4.716 9.479-9.997 9.479" id="a"/></defs><g fill-rule="evenodd"><mask id="b"><use xlink:href="#a"/></mask><use xlink:href="#a"/><g mask="url(#b)"><rect width="24" height="24"/></g></g></svg>

<svg xmlns="http://www.w3.org/2000/svg" viewBox="0 0 24 24"><g data-name="Layer 2"><path d="M12 22h-.43A10.16 10.16 0 0 1 2 12.29a10 10 0 0 1 14.12-9.41 1.48 1.48 0 0 1 .77.86 1.47 1.47 0 0 1-.1 1.16L15.5 7.28a1.44 1.44 0 0 1-1.83.64A4.5 4.5 0 0 0 8.77 9a4.41 4.41 0 0 0-1.16 3.34 4.36 4.36 0 0 0 1.66 3 4.52 4.52 0 0 0 3.45 1 3.89 3.89 0 0 0 2.63-1.57h-2.9A1.45 1.45 0 0 1 11 13.33v-2.68a1.45 1.45 0 0 1 1.45-1.45h8.1A1.46 1.46 0 0 1 22 10.64v1.88A10 10 0 0 1 12 22zm0-18a8 8 0 0 0-8 8.24A8.12 8.12 0 0 0 11.65 20 8 8 0 0 0 20 12.42V11.2h-7v1.58h5.31l-.41 1.3a6 6 0 0 1-4.9 4.25A6.58 6.58 0 0 1 8 17a6.33 6.33 0 0 1-.72-9.3A6.52 6.52 0 0 1 14 5.91l.77-1.43A7.9 7.9 0 0 0 12 4z" data-name="google"/></g></svg>
